X:885
T:Never (or "Lover" ) Give Over
A:Wyresdale, Lancashire
B:E and J Winder, 1835-41
L:1/8
M:C|
O:England
Z:Richard Robinson 
%%TUNEURL: http://www.leeds.ac.uk/music/Info/RRTuneBk/gettune/00001094.html
%%ID:00001094
K:D
D/D/D F>G A>cdA | Be-ed d/c/B AF | D/D/D F>G A>Bd>A | Be e/d/c d2 d2 ::
d>ef>d gefd | B/B/B ed c>BA>c | d>ef>d gefd | B/B/B ec d2d2 ::
(3AFD (3DF[AD] (3BGE (3EG[BE] | (3AFD (3DFD (3ECA, A,2 | \
(3AFD (3DF[AD] (3BGE (3EG[BE] | Ad (3cBc d2 d2 ::
%%newpage
%page 71
